X:3014
T:Cumberland Square Eight
T:My Love She's but a Lassie Yet
R:Reel
C:Trad.
O:Scotland
Z:Paul Hardy's Session Tunebook 2015 (see www.paulhardy.net). Creative Commons cc by-nc-sa licenced.
M:4/4
L:1/16
Q:1/4=120
K:D
dc|"D"d2D2 F2A2 d2D2 D2dc|d2D2 F2A2 "A"e2E2 E2dc|"D"d2D2 F2A2 "G"B2g2 f2e2|"A7"dcBA B2c2 "D"d2D2 D2:|
|:fg|"D"a2f2 g2e2 f2d2 d2fg|a2f2 gfga "Em"b2e2 e2fg|"D"a2f2 g2e2 f2d2 e2c2|"A7"dcBA B2c2 "D"d2D2 D2:|

